!!!COM: Young, Selwyn Walford
!!!CDT: 1899-1977
!!!OTL: National Anthem, Belize
!!!ENC: Davis, Matthew J.
!!Vocal Line Only
**kern
*clefG1
*k[b-]
*F:
*M4/4
=1-
4c
=2
4f
8.c
16f
4a
8.f
16a
=3
4cc
4cc
4cc
4b-
=4
4a
8.a
16a
4g
8.f
16g
=5
4a
4a
4a
4f
=6
8dd
4dd
8dd
4cc
4cc
=7
8b-
4b-
8b-
4a
4a
=8
4.g
8f
8e
8f
8g
8a
=9
4.g
8g
4g
4c
=10
4d
8.e
16e
4f
4g
=11
4a-
8.a
16g
4f
4g
=12
4a-
8.g
16f
4a
8.g
16f
=13
4c
4c
4c
8.c
16c
=14
4f
4g
4a
8.g
16f
=15
4a
4b-
4cc
4dd
=16
4.cc
8-
8a
8b-
8a
8g
=17
8f
8f
4e
4f
==18
!!Chorus
4c
=19
2.f
4g
=20
2.a
8.g
16f
=21
2cc
2b-
=22
2.a
4f
=23
2.dd
4dd
=24
4cc
2cc
4r
=25
2.b-
4b-
=26
2.a
4f
=27
2.dd
4dd
=28
4cc
2cc
4a
=29
4b-
4a
4g
4f
=30
2.cc
4r
=31
2.f
8.a
16f
=32
2.cc
8.b-
16b-
=33
1a
=34
1g
=34
[1f
=35
&[2f]
4f&]
4r
==|!
*-
